browser/images/lc_showstatusbar.svg

<svg viewBox="0 0 24 24" xmlns="http://www.w3.org/2000/svg"><path d="m3 4v16h18v-16z" fill="#fafafa"/><path d="m15.4 7.9a.5.5 0 0 1 .4.2l3 3a.5.5 0 1 1 -.7.7l-2.1-2.1v5.8a.5.5 0 1 1 -1 0v-5.8l-2.1 2.1a.5.5 0 1 1 -.7-.7l2.8-3a.5.5 0 0 1 .4-.2z" fill="#1e8bcd"/><path d="m3 3c-.554 0-1 .446-1 1v16c0 .554.446 1 1 1h18c.554 0 1-.446 1-1v-16c0-.554-.446-1-1-1zm0 1h18v16h-18z" fill="#3a3a38"/><path d="m22 18c0-.554-.446-1-1-1h-18c-.554 0-1 .446-1 1v2c0 .554.446 1 1 1h18c.554 0 1-.446 1-1zm-1 0v2h-18v-2z" fill="#0063b1"/><path d="m21 18h-18v2h18z" fill="#83beec"/></svg>

<svg viewBox="0 0 24 24" xmlns="http://www.w3.org/2000/svg">
  <path
     style="fill:#ffffff"
     d="M 3,4 V 20 H 21 V 4 Z"
     />
  <path
     d="m 15.4,7.9 a 0.5,0.5 0 0 1 0.4,0.2 l 3,3 a 0.5,0.5 0 1 1 -0.7,0.7 L 16,9.7 v 5.8 a 0.5,0.5 0 1 1 -1,0 V 9.7 l -2.1,2.1 a 0.5,0.5 0 1 1 -0.7,-0.7 l 2.8,-3 a 0.5,0.5 0 0 1 0.4,-0.2 z"
     fill="#1e8bcd"
     />
  <path
     style="fill:#3a3a38"
     d="M 3,3 C 2.446,3 2,3.446 2,4 v 16 c 0,0.554 0.446,1 1,1 h 18 c 0.554,0 1,-0.446 1,-1 V 4 C 22,3.446 21.554,3 21,3 Z M 3,4 H 21 V 20 H 3 Z"
     />
  <path
     style="fill:#1e8bcd"
     d="m 22,18 c 0,-0.554 -0.446,-1 -1,-1 H 3 c -0.554,0 -1,0.446 -1,1 v 2 c 0,0.554 0.446,1 1,1 h 18 c 0.554,0 1,-0.446 1,-1 z m -1,0 v 2 H 3 v -2 z"
     />
  <path
     style="fill:#83beec"
     d="M 21,18 H 3 v 2 h 18 z"
     />
</svg>
